X:438
L:1/8
M:4/4
K:C
 BEA |[M:2/2][K:A]SOSOO .!fermata!PMTuCOMcB | AGAB AEFG | Ac (3(efg) a2 (3(efg) | aecA dfgf | 
 (3(efe) (3(dcB) eaec | AGAB AEFG | Ac (3(efg) a2 (3(efg) | aecA dBGB | A2 A2 A2 :: (3(efg) | 
 aecd fdBG | AcEc AcEc | BdEd BdEd | ceAe ceAe | aece fdBG | AcEc BABc | dfed cBAG | A2 A2 A2 :: 
 (cB) | AGAB AEFG | cABc eAce | fdge afdf | (3(efe) (3(dcB) AGFG | AGAB cEAc | BABc defg | 
 ag af edcB | A2 A2 A2 :: (cd) | efec ABcA | BEGB AGAB | cAce dcBA | GABG Edcd | efec ABcA | 
 BABc defg | agaf edcB | A2 A2 A2 :|

